X:1
T:Title
L:1/8
Q:1/4=100
M:6/8
K:E
V:1 treble nm="Church Organ, Staff"
V:1
 E2 E D2 E | F2 G F2 E | G2 F E2 E | FG/AB/- B2 z/ c/- | c3/2ED/- D z/ EF/- | F3/2GF/- F z/ EB/- | %6
w: By~J.~F.~Bridge,~Jus.~Doc * * *||||||
 B3/2AA/- A z/ GG/- | G3/2FE/- E2 z/ E/- | E3/2EE/- E z/ F=G/- | G3/2AB/- B z/ =GG/- | %10
w: ||||
 G3/2=GG/- G z/ B^B/- | B3/2=de/- e2 z/ ^B/- | B3/2^B=B/- B z/ BB/- | B3/2BB/- B z/ G^B/- | %14
w: ||||
 B3/2^B=B/- B z/ BB/- | B3/2BB/- B2 z/ c/- | c3/2ED/- D z/ EF/- | F3/2GF/- F z/ EG/- | %18
w: ||||
 G3/2FE/- E z/ EF/- | FG/AB/- B2 z/ c/- | c3/2GA/- AB/c=d/- | d3/2AB/- Bc/=de/- | %22
w: ||||
 e=d/cB/- B/FGA/- | A2 z/ A/- A2 z/ A/- | A6 |] %25
w: |||

